!!!COM: Corelli, Arcangelo
!!!OPR: Sonata da chiesa
!!!OPS: 3
!!!ONM: 10
!!!OMV: 4
!!!OMD: Allegro
**kern	**cdata-harm	**fb	**kern	**kern
*part3	*above	*part3	*part2	*part1
*staff3	*	*	*staff2	*staff1
*I"Violone & Organo	*	*	*I"Violino II	*I"Violino I
*clefF4	*	*	*clefG2	*clefG2
*k[]	*	*	*k[]	*k[]
*M2/2	*	*	*M12/8	*M12/8
*met(c|)	*	*	*	*
*MM220	*	*	*MM220	*MM220
=	=	=	=	=
1r	.	.	3.r	8eeL
.	.	.	.	8cc
.	.	.	.	8eeJ
.	.	.	.	8ddL
.	.	.	8eeL	8b
.	.	.	8cc	8ddJ
.	.	.	8eeJ	8ccL
.	.	.	8ddL	8a
.	.	.	8b	8ccJ
.	.	.	8ddJ	8bL
.	.	.	.	8g#X
.	.	.	.	8bJ
=	=	=	=	=
4A	.	.	.	.
4E	.	7 #	8ccL	.
.	.	.	8a	.
4AA	.	.	8ccJ	8eeL
.	.	.	8bL	8cc
4r	.	.	8g#X	8eeJ
.	.	.	8bJ	8ddL
.	.	.	8eeL	8b
.	.	.	8cc	8ddJ
.	.	.	8eeJ	8ccL
.	.	.	8ddL	8a
.	.	.	8b	8ccJ
.	.	.	8ddJ	8bL
.	.	.	.	8g#X
.	.	.	.	8bJ
=	=	=	=	=
2r	.	.	.	.
4A	.	.	.	.
4E	.	7 #	8ccL	.
.	.	.	8a	.
.	.	.	8ccJ	8eeL
.	.	.	8bL	8cc
.	.	.	8g#X	8eeJ
.	.	.	8bJ	8ddL
.	.	.	8eeL	8b
.	.	.	8cc	8ddJ
.	.	.	8eeJ	8ccL
.	.	.	8ddL	8a
.	.	.	8b	8ccJ
.	.	.	8ddJ	8bL
.	.	.	.	8g#X
.	.	.	.	8bJ
=	=	=	=	=
4AA	.	.	.	.
2r	.	.	.	.
4r	.	.	.	.
.	.	.	8ccL	.
.	.	.	8a	.
.	.	.	8ccJ	4.a
.	.	.	8bL	.
.	.	.	8g#X	.
.	.	.	8bJ	4.e
.	.	.	4.a	.
.	.	.	.	8aaL
.	.	.	4.e	8ff
.	.	.	.	8aaJ
.	.	.	.	8ggL
.	.	.	.	8ee
.	.	.	.	8ggJ
=	=	=	=	=
4d	.	.	.	.
4A	.	7 #	.	.
4D	.	.	.	.
4r	.	.	.	.
.	.	.	8aaL	.
.	.	.	8ff	.
.	.	.	8aaJ	8ffL
.	.	.	8ggL	8dd
.	.	.	8ee	8ffJ
.	.	.	8ggJ	8eeL
.	.	.	8ffL	8cc#X
.	.	.	8dd	8eeJ
.	.	.	8ffJ	8aaL
.	.	.	8eeL	8ff
.	.	.	8cc#X	8aaJ
.	.	.	8eeJ	8ggL
.	.	.	.	8ee
.	.	.	.	8ggJ
=	=	=	=	=
2r	.	.	.	.
4d	.	.	.	.
4A	.	7 #	.	.
.	.	.	8aaL	.
.	.	.	8ff	.
.	.	.	8aaJ	8ffL
.	.	.	8ggL	8dd
.	.	.	8ee	8ffJ
.	.	.	8ggJ	8eeL
.	.	.	8ffL	8cc#X
.	.	.	8dd	8eeJ
.	.	.	8ffJ	8aaL
.	.	.	8eeL	8ff
.	.	.	8cc#X	8aaJ
.	.	.	8eeJ	8ggL
.	.	.	.	8ee
.	.	.	.	8ggJ
=	=	=	=	=
4D	.	.	.	.
4E	.	#	.	.
2F	.	7	.	.
.	.	6	.	.
.	.	.	4.a	.
.	.	.	.	4.ff
.	.	.	4.g#X	.
.	.	.	.	2.ee
.	.	.	2.a	.
.	.	.	.	4.dd
=	=	=	=	=
1E	.	#	.	.
.	.	.	1.g#X	.
.	.	.	.	1.ee
=:|!|:	=:|!|:	=:|!|:	=:|!|:	=:|!|:
1r	.	.	.	.
.	.	.	6.r	.
.	.	.	6.r	8bbL
.	.	.	.	8gg
.	.	.	8bbL	8bbJ
.	.	.	8gg	8aaL
.	.	.	8bbJ	8ff#X
.	.	.	8aaL	8aaJ
.	.	.	8ff#X	8ggL
.	.	.	8aaJ	8ee
.	.	.	.	8ggJ
.	.	.	.	8ff#L
.	.	.	.	8dd#X
.	.	.	.	8ff#J
=	=	=	=	=
4E	.	.	.	.
4BB	.	7 #	.	.
4EE	.	.	.	.
4r	.	.	.	.
.	.	.	8ggL	.
.	.	.	8ee	.
.	.	.	8ggJ	.
.	.	.	8ff#XL	.
.	.	.	8dd#X	8bbL
.	.	.	8ff#J	8gg
.	.	.	8bbL	8bbJ
.	.	.	8gg	8aaL
.	.	.	8bbJ	8ff#X
.	.	.	8aaL	8aaJ
.	.	.	8ff#	8ggL
.	.	.	8aaJ	8ee
.	.	.	.	8ggJ
.	.	.	.	8ff#L
.	.	.	.	8dd#X
.	.	.	.	8ff#J
=	=	=	=	=
2r	.	.	.	.
4E	.	.	.	.
4C	.	6	.	.
.	.	.	8ggL	.
.	.	.	8ee	.
.	.	.	8ggJ	.
.	.	.	8ff#XL	.
.	.	.	8dd#X	8bbL
.	.	.	8ff#J	8gg
.	.	.	8ggL	8bbJ
.	.	.	8ee	8aaL
.	.	.	8ggJ	8ff#X
.	.	.	8aaL	8aaJ
.	.	.	8gg	4.gg
.	.	.	8aaJ	.
.	.	.	.	4.ee
=	=	=	=	=
4BB	.	#	.	.
4G	.	6	.	.
4c	.	7	.	.
4F#X	.	7	.	.
.	.	.	4.bb	.
.	.	.	6.r	.
.	.	.	.	8dd#XL
.	.	.	[4.ee	8cc#X
.	.	.	.	8bJ
.	.	.	.	[4.bb
.	.	.	8eeL]	.
.	.	.	8ff#X	.
.	.	.	8eeJ	8bbL]
.	.	.	.	8aa
.	.	.	.	8ggJ
.	.	.	.	[4.aa
=	=	=	=	=
4B	.	7 #	.	.
4E	.	.	.	.
4AA	.	#6\ #4\	.	.
.	.	7 5	.	.
4BB	.	5 4	.	.
.	.	#	.	.
.	.	.	4dd#X	.
.	.	.	8b	.
.	.	.	8bbL	.
.	.	.	8aa	.
.	.	.	8ggJ	8aaL]
.	.	.	4ff#X	8bb
.	.	.	.	8aaJ
.	.	.	8gg	8ggL
.	.	.	4.ff#	8ff#X
.	.	.	.	8eeJ
.	.	.	.	8dd#XL
.	.	.	.	8b
.	.	.	.	8eeJ
.	.	.	.	8eeL
.	.	.	.	8ff#
.	.	.	.	8dd#J
=	=	=	=	=
2EE	.	.	.	.
2r	.	.	.	.
.	.	.	2.ee	.
.	.	.	.	2.ee
.	.	.	8eeL	.
.	.	.	8cc	.
.	.	.	8ddJ	.
.	.	.	8eeL	.
.	.	.	8dd	.
.	.	.	8ccJ	8ggL
.	.	.	.	8ee
.	.	.	.	8ffJ
.	.	.	.	8ggL
.	.	.	.	8ff
.	.	.	.	8eeJ
=	=	=	=	=
2r	.	.	.	.
4c	.	.	.	.
4G	.	.	.	.
.	.	.	8ddL	.
.	.	.	8b	.
.	.	.	8ccJ	.
.	.	.	8ddL	.
.	.	.	8ee	.
.	.	.	8ddJ	8ffL
.	.	.	4.cc	8dd
.	.	.	.	8eeJ
.	.	.	.	8ffL
.	.	.	6.r	8gg
.	.	.	.	8ffJ
.	.	.	.	4.ee
.	.	.	.	6.r
=	=	=	=	=
4C	.	.	.	.
2r	.	.	.	.
4r	.	.	.	.
.	.	.	8eeL	.
.	.	.	8cc	.
.	.	.	8ddJ	.
.	.	.	8eeL	.
.	.	.	8dd	.
.	.	.	8ccJ	8ggL
.	.	.	8aL	8ee
.	.	.	8cc#X	8ffJ
.	.	.	8ddJ	8ggL
.	.	.	8eeL	8ff
.	.	.	8dd	8eeJ
.	.	.	8cc#J	8aaL
.	.	.	.	8ee
.	.	.	.	8ffJ
.	.	.	.	8ggL
.	.	.	.	8ff
.	.	.	.	8eeJ
=	=	=	=	=
4d	.	.	.	.
4A	.	#	.	.
4D	.	#	.	.
4r	.	.	.	.
.	.	.	4.dd	.
.	.	.	6.r	.
.	.	.	8ff#XL	4.ff
.	.	.	8dd	.
.	.	.	8eeJ	.
.	.	.	8ff#L	6.r
.	.	.	8ee	.
.	.	.	8ddJ	8aaL
.	.	.	.	8ff#X
.	.	.	.	8ggJ
.	.	.	.	8aaL
.	.	.	.	8gg
.	.	.	.	8ff#J
=	=	=	=	=
2r	.	.	.	.
4e	.	.	.	.
4B	.	#	.	.
.	.	.	8bL	.
.	.	.	8dd#X	.
.	.	.	8eeJ	.
.	.	.	8ff#XL	.
.	.	.	8ee	.
.	.	.	8dd#J	8bbL
.	.	.	4.ee	8ff#X
.	.	.	.	8ggJ
.	.	.	.	8aaL
.	.	.	6.r	8gg
.	.	.	.	8ff#J
.	.	.	.	4.gg
.	.	.	.	6.r
=	=	=	=	=
4c	.	6	.	.
4B	.	6	.	.
4A	.	6	.	.
4G	.	6	.	.
.	.	.	4.ee	.
.	.	.	4.dd	.
.	.	.	.	8aaL
.	.	.	4.cc	8bb
.	.	.	.	8aaJ
.	.	.	.	8ggL
.	.	.	4.b	8aa
.	.	.	.	8ggJ
.	.	.	.	8ffL
.	.	.	.	8aa
.	.	.	.	8ffJ
.	.	.	.	8eeL
.	.	.	.	8gg
.	.	.	.	8eeJ
=	=	=	=	=
4F#X	.	#6\	.	.
4E	.	.	.	.
2BB	.	5 4	.	.
.	.	#	.	.
.	.	.	8%3aa	.
.	.	.	8%3gg	.
.	.	.	.	(16%3dd#XLL
.	.	.	4%3ff#X	.
.	.	.	.	16%3cc#XJ
.	.	.	.	16%3bJ)
.	.	.	.	8%3.eeL
.	.	.	.	16%3eeJk
.	.	.	.	8%3.ee
.	.	.	.	16%3dd#
=	=	=	=	=
2EE	.	.	.	.
2r	.	.	.	.
.	.	.	2.ee	.
.	.	.	3.r	.
.	.	.	.	2.ee
.	.	.	.	8eeL
.	.	.	.	8cc
.	.	.	.	8eeJ
.	.	.	.	8ddL
.	.	.	.	8b
.	.	.	.	8ddJ
=	=	=	=	=
2r	.	.	.	.
4A	.	.	.	.
4E	.	7 #	.	.
.	.	.	8eeL	.
.	.	.	8cc	.
.	.	.	8eeJ	.
.	.	.	8ddL	.
.	.	.	8b	.
.	.	.	8ddJ	.
.	.	.	8ccL	.
.	.	.	8a	.
.	.	.	8ccJ	.
.	.	.	8bL	.
.	.	.	8g#X	.
.	.	.	8bJ	.
.	.	.	.	8ccL
.	.	.	.	8a
.	.	.	.	8ccJ
.	.	.	.	8bL
.	.	.	.	8g#X
.	.	.	.	8bJ
.	.	.	.	8eeL
.	.	.	.	8cc
.	.	.	.	8eeJ
.	.	.	.	8ddL
.	.	.	.	8b
.	.	.	.	8ddJ
=	=	=	=	=
4AA	.	.	.	.
2r	.	.	.	.
4r	.	.	.	.
.	.	.	8eeL	.
.	.	.	8cc	.
.	.	.	8eeJ	.
.	.	.	8ddL	.
.	.	.	8b	.
.	.	.	8ddJ	.
.	.	.	4.cc	.
.	.	.	4.e	.
.	.	.	.	8ccL
.	.	.	.	8a
.	.	.	.	8ccJ
.	.	.	.	8bL
.	.	.	.	8g#X
.	.	.	.	8bJ
.	.	.	.	8aaL
.	.	.	.	8ee
.	.	.	.	8aaJ
.	.	.	.	8ggL
.	.	.	.	8ee
.	.	.	.	8ggJ
=	=	=	=	=
4d	.	.	.	.
4A	.	7 #	.	.
4D	.	.	.	.
4r	.	.	.	.
.	.	.	8aaL	.
.	.	.	8ff	.
.	.	.	8aaJ	.
.	.	.	8ggL	.
.	.	.	8ee	.
.	.	.	8ggJ	.
.	.	.	8ffL	.
.	.	.	8dd	.
.	.	.	8ffJ	.
.	.	.	8eeL	.
.	.	.	8cc#X	.
.	.	.	8eeJ	.
.	.	.	.	8ffL
.	.	.	.	8dd
.	.	.	.	8ffJ
.	.	.	.	8eeL
.	.	.	.	8cc#X
.	.	.	.	8eeJ
.	.	.	.	8aaL
.	.	.	.	8ff
.	.	.	.	8aaJ
.	.	.	.	8ggL
.	.	.	.	8ee
.	.	.	.	8ggJ
=	=	=	=	=
2r	.	.	.	.
4D	.	.	.	.
4E	.	#	.	.
.	.	.	8aaL	.
.	.	.	8ff	.
.	.	.	8aaJ	.
.	.	.	8ggL	.
.	.	.	8ee	.
.	.	.	8ggJ	.
.	.	.	8ffL	.
.	.	.	8gg	.
.	.	.	8ffJ	.
.	.	.	8eeL	.
.	.	.	8ff	.
.	.	.	8eeJ	.
.	.	.	.	8ffL
.	.	.	.	8dd
.	.	.	.	8ffJ
.	.	.	.	8eeL
.	.	.	.	8cc#X
.	.	.	.	8eeJ
.	.	.	.	4.a
.	.	.	.	4.g#X
=	=	=	=	=
4F	.	6	.	.
4E	.	6	.	.
4D	.	-6	.	.
4C	.	6	.	.
.	.	.	8ddL	.
.	.	.	8ff	.
.	.	.	8ddJ	.
.	.	.	8ccL	.
.	.	.	8ee	.
.	.	.	8ccJ	.
.	.	.	8b-XL	.
.	.	.	8dd	.
.	.	.	8b-J	.
.	.	.	8aL	.
.	.	.	8cc	.
.	.	.	8aJ	.
.	.	.	.	4.a
.	.	.	.	4.g
.	.	.	.	4.f
.	.	.	.	4.e
=	=	=	=	=
4BB	.	#6\	.	.
4AA	.	.	.	.
2E	.	5 4	.	.
.	.	#	.	.
.	.	.	(16%3g#XLL	.
.	.	.	16%3f#XJ	.
.	.	.	16%3eJ)	.
.	.	.	8%3.aL	.
.	.	.	16%3aJk	.
.	.	.	8%3.a	.
.	.	.	.	8%3dd
.	.	.	.	8%3cc
.	.	.	16%3g#	.
.	.	.	.	4%3b
=	=	=	=	=
2AA	.	.	.	.
4D	.	.	.	.
4E	.	#	.	.
.	.	.	[4.a	.
.	.	.	4a]	.
.	.	.	8ee	.
.	.	.	4.a	.
.	.	.	.	[4.a
.	.	.	4.g#X	.
.	.	.	.	8aL]
.	.	.	.	8aa
.	.	.	.	8ggJ
.	.	.	.	8ffL
.	.	.	.	8gg
.	.	.	.	8ffJ
.	.	.	.	8eeL
.	.	.	.	8ff
.	.	.	.	8eeJ
=	=	=	=	=
4F	.	6	.	.
4E	.	6	.	.
4D	.	-r6	.	.
4C	.	6	.	.
.	.	.	4.a	.
.	.	.	4.g	.
.	.	.	4.f	.
.	.	.	.	8ddL
.	.	.	.	8ff
.	.	.	4.e	8ddJ
.	.	.	.	8ccL
.	.	.	.	8ee
.	.	.	.	8ccJ
.	.	.	.	8b-XL
.	.	.	.	8dd
.	.	.	.	8b-J
.	.	.	.	8aL
.	.	.	.	8cc
.	.	.	.	8aJ
=	=	=	=	=
4BB	.	#6\	.	.
4AA	.	.	.	.
2E	.	5 4	.	.
.	.	#	.	.
.	.	.	8%3dd	.
.	.	.	8%3cc	.
.	.	.	4%3b	.
.	.	.	.	(16%3g#XLL
.	.	.	.	16%3f#XJ
.	.	.	.	16%3eJ)
.	.	.	.	8%3.aL
.	.	.	.	16%3aJk
.	.	.	.	8%3.a
.	.	.	.	16%3g#
=	=	=	=	=
1AA	.	.	.	.
.	.	.	1.a	.
.	.	.	.	1.a
=:|!	=:|!	=:|!	=:|!	=:|!
*-	*-	*-	*-	*-
!!!system-decoration: [{s1,s2},s3]
!!!YEM: CC BY-NC-SA 4.0; CCARH; DCML